Newaita/actions/16/document-preview-archive.svg

<svg height="16" viewBox="0 0 16 16" width="16" xmlns="http://www.w3.org/2000/svg"><g fill="#424242"><path d="m2.316406 7.734375h3.96875c.183594 0 .328125.144531.328125.328125s-.144531.332031-.328125.332031h-3.96875c-.183594 0-.332031-.148437-.332031-.332031s.148437-.328125.332031-.328125zm0 0"/><path d="m9.5625 8.0625c-1.816406 0-3.28125 1.464844-3.28125 3.28125v.054688c0 1.816406 1.464844 3.28125 3.28125 3.28125h.050781c1.820313 0 3.28125-1.464844 3.28125-3.28125v-.054688c0-1.816406-1.460937-3.28125-3.28125-3.28125zm.011719 1.324219h.03125c1.089843 0 1.96875.878906 1.96875 1.96875v.03125c0 1.089843-.878907 1.96875-1.96875 1.96875h-.03125c-1.09375 0-1.96875-.878907-1.96875-1.96875v-.03125c0-1.089844.875-1.96875 1.96875-1.96875zm0 0"/><path d="m12.195312 12.125 2.289063 1.324219c.160156.089843.214844.292969.121094.449219l-.328125.574218c-.09375.160156-.296875.210938-.453125.121094l-2.292969-1.324219c-.15625-.089843-.210938-.292969-.121094-.449219l.332032-.574218c.089843-.15625.292968-.210938.453124-.121094zm0 0"/><path d="m2.644531 1.449219c-.730469 0-1.320312.589843-1.320312 1.320312v10.585938c0 .734375.589843 1.324219 1.320312 1.324219h2.316407v-1.324219h-1.652344c-.367188 0-.664063-.296875-.664063-.660157v-9.261718c0-.367188.296875-.664063.664063-.664063h9.261718c.363282 0 .660157.296875.660157.664063v3.304687h1.324219v-3.96875c0-.730469-.589844-1.320312-1.324219-1.320312zm0 0"/></g></svg>

<?xml version="1.0" encoding="UTF-8"?>
<svg xmlns="http://www.w3.org/2000/svg" xmlns:xlink="http://www.w3.org/1999/xlink" width="16px" height="16px" viewBox="0 0 16 16" version="1.1">
<g id="surface1">
<path style=" stroke:none;fill-rule:nonzero;fill:rgb(25.882354%,25.882354%,25.882354%);fill-opacity:1;" d="M 2.316406 7.734375 L 6.285156 7.734375 C 6.46875 7.734375 6.613281 7.878906 6.613281 8.0625 C 6.613281 8.246094 6.46875 8.394531 6.285156 8.394531 L 2.316406 8.394531 C 2.132812 8.394531 1.984375 8.246094 1.984375 8.0625 C 1.984375 7.878906 2.132812 7.734375 2.316406 7.734375 Z M 2.316406 7.734375 "/>
<path style=" stroke:none;fill-rule:nonzero;fill:rgb(25.882354%,25.882354%,25.882354%);fill-opacity:1;" d="M 9.5625 8.0625 C 7.746094 8.0625 6.28125 9.527344 6.28125 11.34375 L 6.28125 11.398438 C 6.28125 13.214844 7.746094 14.679688 9.5625 14.679688 L 9.613281 14.679688 C 11.433594 14.679688 12.894531 13.214844 12.894531 11.398438 L 12.894531 11.34375 C 12.894531 9.527344 11.433594 8.0625 9.613281 8.0625 Z M 9.574219 9.386719 L 9.605469 9.386719 C 10.695312 9.386719 11.574219 10.265625 11.574219 11.355469 L 11.574219 11.386719 C 11.574219 12.476562 10.695312 13.355469 9.605469 13.355469 L 9.574219 13.355469 C 8.480469 13.355469 7.605469 12.476562 7.605469 11.386719 L 7.605469 11.355469 C 7.605469 10.265625 8.480469 9.386719 9.574219 9.386719 Z M 9.574219 9.386719 "/>
<path style=" stroke:none;fill-rule:nonzero;fill:rgb(25.882354%,25.882354%,25.882354%);fill-opacity:1;" d="M 12.195312 12.125 L 14.484375 13.449219 C 14.644531 13.539062 14.699219 13.742188 14.605469 13.898438 L 14.277344 14.472656 C 14.183594 14.632812 13.980469 14.683594 13.824219 14.59375 L 11.53125 13.269531 C 11.375 13.179688 11.320312 12.976562 11.410156 12.820312 L 11.742188 12.246094 C 11.832031 12.089844 12.035156 12.035156 12.195312 12.125 Z M 12.195312 12.125 "/>
<path style=" stroke:none;fill-rule:nonzero;fill:rgb(25.882354%,25.882354%,25.882354%);fill-opacity:1;" d="M 2.644531 1.449219 C 1.914062 1.449219 1.324219 2.039062 1.324219 2.769531 L 1.324219 13.355469 C 1.324219 14.089844 1.914062 14.679688 2.644531 14.679688 L 4.960938 14.679688 L 4.960938 13.355469 L 3.308594 13.355469 C 2.941406 13.355469 2.644531 13.058594 2.644531 12.695312 L 2.644531 3.433594 C 2.644531 3.066406 2.941406 2.769531 3.308594 2.769531 L 12.570312 2.769531 C 12.933594 2.769531 13.230469 3.066406 13.230469 3.433594 L 13.230469 6.738281 L 14.554688 6.738281 L 14.554688 2.769531 C 14.554688 2.039062 13.964844 1.449219 13.230469 1.449219 Z M 2.644531 1.449219 "/>
</g>
</svg>
